icon_installer/data/icons/scalable/actions/show-mark2-symbolic.svg

<?xml version="1.0" encoding="UTF-8"?>
<svg height="16px" viewBox="0 0 16 16" width="16px" xmlns="http://www.w3.org/2000/svg" xmlns:xlink="http://www.w3.org/1999/xlink">
    <filter id="a" height="100%" width="100%" x="0%" y="0%">
        <feColorMatrix in="SourceGraphic" type="matrix" values="0 0 0 0 1 0 0 0 0 1 0 0 0 0 1 0 0 0 1 0"/>
    </filter>
    <mask id="b">
        <g filter="url(#a)">
            <path d="m 0 0 h 16 v 16 h -16 z" fill-opacity="0.3"/>
        </g>
    </mask>
    <clipPath id="c">
        <path d="m 0 0 h 1600 v 1200 h -1600 z"/>
    </clipPath>
    <mask id="d">
        <g filter="url(#a)">
            <path d="m 0 0 h 16 v 16 h -16 z" fill-opacity="0.05"/>
        </g>
    </mask>
    <clipPath id="e">
        <path d="m 0 0 h 1600 v 1200 h -1600 z"/>
    </clipPath>
    <mask id="f">
        <g filter="url(#a)">
            <path d="m 0 0 h 16 v 16 h -16 z" fill-opacity="0.05"/>
        </g>
    </mask>
    <clipPath id="g">
        <path d="m 0 0 h 1600 v 1200 h -1600 z"/>
    </clipPath>
    <mask id="h">
        <g filter="url(#a)">
            <path d="m 0 0 h 16 v 16 h -16 z" fill-opacity="0.05"/>
        </g>
    </mask>
    <clipPath id="i">
        <path d="m 0 0 h 1600 v 1200 h -1600 z"/>
    </clipPath>
    <mask id="j">
        <g filter="url(#a)">
            <path d="m 0 0 h 16 v 16 h -16 z" fill-opacity="0.05"/>
        </g>
    </mask>
    <clipPath id="k">
        <path d="m 0 0 h 1600 v 1200 h -1600 z"/>
    </clipPath>
    <mask id="l">
        <g filter="url(#a)">
            <path d="m 0 0 h 16 v 16 h -16 z" fill-opacity="0.05"/>
        </g>
    </mask>
    <clipPath id="m">
        <path d="m 0 0 h 1600 v 1200 h -1600 z"/>
    </clipPath>
    <mask id="n">
        <g filter="url(#a)">
            <path d="m 0 0 h 16 v 16 h -16 z" fill-opacity="0.05"/>
        </g>
    </mask>
    <clipPath id="o">
        <path d="m 0 0 h 1600 v 1200 h -1600 z"/>
    </clipPath>
    <mask id="p">
        <g filter="url(#a)">
            <path d="m 0 0 h 16 v 16 h -16 z" fill-opacity="0.3"/>
        </g>
    </mask>
    <clipPath id="q">
        <path d="m 0 0 h 1600 v 1200 h -1600 z"/>
    </clipPath>
    <mask id="r">
        <g filter="url(#a)">
            <path d="m 0 0 h 16 v 16 h -16 z" fill-opacity="0.5"/>
        </g>
    </mask>
    <clipPath id="s">
        <path d="m 0 0 h 1600 v 1200 h -1600 z"/>
    </clipPath>
    <g clip-path="url(#c)" mask="url(#b)" transform="matrix(1 0 0 1 -216 -736)">
        <path d="m 562.460938 212.058594 h 10.449218 c -1.183594 0.492187 -1.296875 2.460937 0 3 h -10.449218 z m 0 0" fill="#2e3436"/>
    </g>
    <g clip-path="url(#e)" mask="url(#d)" transform="matrix(1 0 0 1 -216 -736)">
        <path d="m 16 748 h 1 v 1 h -1 z m 0 0" fill="#2e3436" fill-rule="evenodd"/>
    </g>
    <g clip-path="url(#g)" mask="url(#f)" transform="matrix(1 0 0 1 -216 -736)">
        <path d="m 17 747 h 1 v 1 h -1 z m 0 0" fill="#2e3436" fill-rule="evenodd"/>
    </g>
    <g clip-path="url(#i)" mask="url(#h)" transform="matrix(1 0 0 1 -216 -736)">
        <path d="m 18 750 h 1 v 1 h -1 z m 0 0" fill="#2e3436" fill-rule="evenodd"/>
    </g>
    <g clip-path="url(#k)" mask="url(#j)" transform="matrix(1 0 0 1 -216 -736)">
        <path d="m 16 750 h 1 v 1 h -1 z m 0 0" fill="#2e3436" fill-rule="evenodd"/>
    </g>
    <g clip-path="url(#m)" mask="url(#l)" transform="matrix(1 0 0 1 -216 -736)">
        <path d="m 17 751 h 1 v 1 h -1 z m 0 0" fill="#2e3436" fill-rule="evenodd"/>
    </g>
    <g clip-path="url(#o)" mask="url(#n)" transform="matrix(1 0 0 1 -216 -736)">
        <path d="m 19 751 h 1 v 1 h -1 z m 0 0" fill="#2e3436" fill-rule="evenodd"/>
    </g>
    <g clip-path="url(#q)" mask="url(#p)" transform="matrix(1 0 0 1 -216 -736)">
        <path d="m 136 776 v 7 h 7 v -7 z m 0 0" fill="#2e3436"/>
    </g>
    <g clip-path="url(#s)" mask="url(#r)" transform="matrix(1 0 0 1 -216 -736)">
        <path d="m 219 758 h 3 v 12 h -3 z m 0 0" fill="#2e3436"/>
    </g>
    <g fill="#2e3436">
        <path d="m 11 12 v -7 h -3 v 7 z m 0 0"/>
        <path d="m 4 10 v -1 h -1 v 1 z m 0 0"/>
        <path d="m 3 11 v -1 h -1 v 1 z m 0 0"/>
        <path d="m 4 12 v -1 h -1 v 1 z m 0 0"/>
        <path d="m 2 12 v -1 h -1 v 1 z m 0 0"/>
        <path d="m 5 11 v -1 h -1 v 1 z m 0 0"/>
        <path d="m 5 9 v -1 h -1 v 1 z m 0 0"/>
        <path d="m 4 8 v -1 h -1 v 1 z m 0 0"/>
        <path d="m 5 7 v -1 h -1 v 1 z m 0 0"/>
        <path d="m 2 9 v -1 h -1 v 1 z m 0 0"/>
        <path d="m 12 4 h 2 v 9 h -2 z m 0 0"/>
        <path d="m 6 10 v -1 h -1 v 1 z m 0 0"/>
        <path d="m 6 12 v -1 h -1 v 1 z m 0 0"/>
        <path d="m 7 11 v -1 h -1 v 1 z m 0 0"/>
        <path d="m 7 9 v -1 h -1 v 1 z m 0 0"/>
        <path d="m 6 8 v -1 h -1 v 1 z m 0 0"/>
        <path d="m 7 7 v -1 h -1 v 1 z m 0 0"/>
        <path d="m 6 6 v -1 h -1 v 1 z m 0 0"/>
        <path d="m 8 12 v -1 h -1 v 1 z m 0 0"/>
        <path d="m 8 10 v -1 h -1 v 1 z m 0 0"/>
        <path d="m 8 8 v -1 h -1 v 1 z m 0 0"/>
        <path d="m 8 11 v -1 h -1 v 1 z m 0 0"/>
        <path d="m 8 6 v -1 h -1 v 1 z m 0 0"/>
        <path d="m 3 6 v -1 h -1 v 1 z m 0 0"/>
    </g>
</svg>

<svg xmlns="http://www.w3.org/2000/svg" width="16" height="16"><filter id="a" width="100%" height="100%" x="0%" y="0%"><feColorMatrix in="SourceGraphic" values="0 0 0 0 1 0 0 0 0 1 0 0 0 0 1 0 0 0 1 0"/></filter><mask id="c"><g filter="url(#a)"><path fill-opacity=".3" d="M0 0h16v16H0z"/></g></mask><clipPath id="b"><path d="M0 0h1600v1200H0z"/></clipPath><mask id="e"><g filter="url(#a)"><path fill-opacity=".05" d="M0 0h16v16H0z"/></g></mask><clipPath id="d"><path d="M0 0h1600v1200H0z"/></clipPath><mask id="g"><g filter="url(#a)"><path fill-opacity=".05" d="M0 0h16v16H0z"/></g></mask><clipPath id="f"><path d="M0 0h1600v1200H0z"/></clipPath><mask id="i"><g filter="url(#a)"><path fill-opacity=".05" d="M0 0h16v16H0z"/></g></mask><clipPath id="h"><path d="M0 0h1600v1200H0z"/></clipPath><mask id="k"><g filter="url(#a)"><path fill-opacity=".05" d="M0 0h16v16H0z"/></g></mask><clipPath id="j"><path d="M0 0h1600v1200H0z"/></clipPath><mask id="m"><g filter="url(#a)"><path fill-opacity=".05" d="M0 0h16v16H0z"/></g></mask><clipPath id="l"><path d="M0 0h1600v1200H0z"/></clipPath><mask id="o"><g filter="url(#a)"><path fill-opacity=".05" d="M0 0h16v16H0z"/></g></mask><clipPath id="n"><path d="M0 0h1600v1200H0z"/></clipPath><mask id="q"><g filter="url(#a)"><path fill-opacity=".3" d="M0 0h16v16H0z"/></g></mask><clipPath id="p"><path d="M0 0h1600v1200H0z"/></clipPath><mask id="s"><g filter="url(#a)"><path fill-opacity=".5" d="M0 0h16v16H0z"/></g></mask><clipPath id="r"><path d="M0 0h1600v1200H0z"/></clipPath><g clip-path="url(#b)" mask="url(#c)" transform="translate(-216 -736)"><path fill="#2e3436" d="M562.46 212.059h10.45c-1.183.492-1.297 2.46 0 3h-10.45zm0 0"/></g><g clip-path="url(#d)" mask="url(#e)" transform="translate(-216 -736)"><path fill="#2e3436" fill-rule="evenodd" d="M16 748h1v1h-1zm0 0"/></g><g clip-path="url(#f)" mask="url(#g)" transform="translate(-216 -736)"><path fill="#2e3436" fill-rule="evenodd" d="M17 747h1v1h-1zm0 0"/></g><g clip-path="url(#h)" mask="url(#i)" transform="translate(-216 -736)"><path fill="#2e3436" fill-rule="evenodd" d="M18 750h1v1h-1zm0 0"/></g><g clip-path="url(#j)" mask="url(#k)" transform="translate(-216 -736)"><path fill="#2e3436" fill-rule="evenodd" d="M16 750h1v1h-1zm0 0"/></g><g clip-path="url(#l)" mask="url(#m)" transform="translate(-216 -736)"><path fill="#2e3436" fill-rule="evenodd" d="M17 751h1v1h-1zm0 0"/></g><g clip-path="url(#n)" mask="url(#o)" transform="translate(-216 -736)"><path fill="#2e3436" fill-rule="evenodd" d="M19 751h1v1h-1zm0 0"/></g><g clip-path="url(#p)" mask="url(#q)" transform="translate(-216 -736)"><path fill="#2e3436" d="M136 776v7h7v-7zm0 0"/></g><g clip-path="url(#r)" mask="url(#s)" transform="translate(-216 -736)"><path fill="#2e3436" d="M219 758h3v12h-3zm0 0"/></g><path fill="#2e3436" d="M11 12V5H8v7zm-7-2V9H3v1zm-1 1v-1H2v1zm1 1v-1H3v1zm-2 0v-1H1v1zm3-1v-1H4v1zm0-2V8H4v1zM4 8V7H3v1zm1-1V6H4v1zM2 9V8H1v1zm10-5h2v9h-2zm-6 6V9H5v1zm0 2v-1H5v1zm1-1v-1H6v1zm0-2V8H6v1zM6 8V7H5v1zm1-1V6H6v1zM6 6V5H5v1zm2 6v-1H7v1zm0-2V9H7v1zm0-2V7H7v1zm0 3v-1H7v1zm0-5V5H7v1zM3 6V5H2v1zm0 0"/></svg>
